static/graphsymbols/solidworks.svg

<?xml version="1.0" encoding="utf-8"?>
<!-- Svg Vector Icons : http://www.onlinewebfonts.com/icon -->
<!DOCTYPE svg PUBLIC "-//W3C//DTD SVG 1.1//EN" "http://www.w3.org/Graphics/SVG/1.1/DTD/svg11.dtd">
<svg version="1.1" xmlns="http://www.w3.org/2000/svg" xmlns:xlink="http://www.w3.org/1999/xlink" x="0px" y="0px" viewBox="0 0 1000 1000" enable-background="new 0 0 1000 1000" xml:space="preserve">
<g><g id="_x32_069a460dcf28295e231f3111e04100d"><path d="M990,389.1c-0.9,7.2-9.2,11.4-49.1,11.1c-193.7-1.7-218,27.6-218,27.6s-16.3,9.5-5.1,31.1c12,23.1,157.3,192.9,188.7,251.4c20.4,37.9,49.1,103.6-64.9,142.5c-111.6,38.9-320.8,0.4-322.2,0c-50.7-12.7-49.5-21.4-48.9-25.1c1-7.2,9.1-11,49-11c183.8,0.2,272.6-12.8,294.1-26.2c13.2-8.2,15.4-20.7,14.2-31.6c-2.7-24-59.6-93.8-106.6-148.8c-48.3-56.6-151-155.3-81.8-215.2c83.1-71.8,266.2-40.2,302-32.5C979.4,370.2,990.8,383.1,990,389.1z M389.6,77c80.9-0.1,143.8,5.2,186.8,12.9c87.6,15.8,67,60,42.1,102.3c-60.4,103-223.5,218.8-233,225.4c-12.4,8.6-5.6,13.6,5.2,9.5C523,377.9,656.3,293.1,710.1,190c45.7-87.4,12.9-128.9-56.7-148.4c-124.3-35-253.1-2.9-263.9,0.3c-15.5,4.5-46.6,13.1-44,24.5C347.3,73.6,353.5,77,389.6,77z M468.5,494.3c-128.9-38.1-269.5-5-290.9,0.7c-32.5,8.6-51.5,17.3-50.1,27.5c1,7.5,9.3,12.7,49.2,11.7c95.1-2.3,173.8,0.9,223.6,14.9c61.7,17.2,69.3,49,38.7,111.4c-14.1,28.8-35,58.6-66.6,90.3c-63.1,63.3-142,104.5-186.5,127c-43.2,21.9-59,10.3-54.2-11.4c5.9-26.5,128.5-238.6,128.5-238.6c9.2-16.1,10.9-31.2,0-35.8c-9.3-4-26.1,9.1-43.6,29.4C145,704.4,13,957.3,10.5,965.6c-2.4,7.9,3.8,9,6.2,9c55.9-0.4,398.9-101.9,509.6-309.3C584.6,556.1,555.1,520,468.5,494.3z"/></g></g>
</svg>

<?xml version="1.0" encoding="UTF-8" standalone="no"?>
<!DOCTYPE svg PUBLIC "-//W3C//DTD SVG 1.1//EN" "http://www.w3.org/Graphics/SVG/1.1/DTD/svg11.dtd">
<svg width="100%" height="100%" viewBox="0 0 981 950" version="1.1" xmlns="http://www.w3.org/2000/svg" xmlns:xlink="http://www.w3.org/1999/xlink" xml:space="preserve" xmlns:serif="http://www.serif.com/" style="fill-rule:evenodd;clip-rule:evenodd;stroke-linejoin:round;stroke-miterlimit:1.41421;">
    <g transform="matrix(1.02519,0,0,1.02506,0,-3.33898e-17)">
        <rect x="0" y="0" width="956" height="926" style="fill-opacity:0.01;"/>
    </g>
    <g transform="matrix(1,0,0,1,-9.95755,-25.3923)">
        <path d="M990,389.1C989.1,396.3 980.8,400.5 940.9,400.2C747.2,398.5 722.9,427.8 722.9,427.8C722.9,427.8 706.6,437.3 717.8,458.9C729.8,482 875.1,651.8 906.5,710.3C926.9,748.2 955.6,813.9 841.6,852.8C730,891.7 520.8,853.2 519.4,852.8C468.7,840.1 469.9,831.4 470.5,827.7C471.5,820.5 479.6,816.7 519.5,816.7C703.3,816.9 792.1,803.9 813.6,790.5C826.8,782.3 829,769.8 827.8,758.9C825.1,734.9 768.2,665.1 721.2,610.1C672.9,553.5 570.2,454.8 639.4,394.9C722.5,323.1 905.6,354.7 941.4,362.4C979.4,370.2 990.8,383.1 990,389.1ZM389.6,77C470.5,76.9 533.4,82.2 576.4,89.9C664,105.7 643.4,149.9 618.5,192.2C558.1,295.2 395,411 385.5,417.6C373.1,426.2 379.9,431.2 390.7,427.1C523,377.9 656.3,293.1 710.1,190C755.8,102.6 723,61.1 653.4,41.6C529.1,6.6 400.3,38.7 389.5,41.9C374,46.4 342.9,55 345.5,66.4C347.3,73.6 353.5,77 389.6,77ZM468.5,494.3C339.6,456.2 199,489.3 177.6,495C145.1,503.6 126.1,512.3 127.5,522.5C128.5,530 136.8,535.2 176.7,534.2C271.8,531.9 350.5,535.1 400.3,549.1C462,566.3 469.6,598.1 439,660.5C424.9,689.3 404,719.1 372.4,750.8C309.3,814.1 230.4,855.3 185.9,877.8C142.7,899.7 126.9,888.1 131.7,866.4C137.6,839.9 260.2,627.8 260.2,627.8C269.4,611.7 271.1,596.6 260.2,592C250.9,588 234.1,601.1 216.6,621.4C145,704.4 13,957.3 10.5,965.6C8.1,973.5 14.3,974.6 16.7,974.6C72.6,974.2 415.6,872.7 526.3,665.3C584.6,556.1 555.1,520 468.5,494.3Z" style="fill:white;fill-rule:nonzero;"/>
    </g>
</svg>
